public/Google_Play.svg

<svg width="160" height="47" viewBox="0 0 160 47" fill="none" xmlns="http://www.w3.org/2000/svg">
<path d="M154.074 46.2222H5.92593C2.66815 46.2222 0 43.6208 0 40.4444V5.77778C0 2.60144 2.66815 0 5.92593 0H154.074C157.332 0 160 2.60144 160 5.77778V40.4444C160 43.6208 157.332 46.2222 154.074 46.2222Z" fill="black"/>
<path d="M12.3673 8.71118C12.0191 9.06651 11.8176 9.61973 11.8176 10.3362V35.8913C11.8176 36.6077 12.0191 37.161 12.3673 37.5163L12.4532 37.5943L27.1406 23.2798V22.9418L12.4532 8.6274L12.3673 8.71118Z" fill="url(#paint0_linear_11917_53943)"/>
<path d="M32.031 28.0538L27.1406 23.2799V22.9419L32.0369 18.168L32.1466 18.2301L37.9451 21.4469C39.5999 22.3598 39.5999 23.862 37.9451 24.7807L32.1466 27.9916L32.031 28.0538V28.0538Z" fill="url(#paint1_linear_11917_53943)"/>
<path d="M32.1467 27.9915L27.1408 23.1108L12.3674 37.5162C12.9171 38.0795 13.8134 38.1474 14.8326 37.5841L32.1467 27.9915" fill="url(#paint2_linear_11917_53943)"/>
<path d="M32.1467 18.2301L14.8326 8.63756C13.8134 8.08001 12.9171 8.14789 12.3674 8.71123L27.1408 23.1109L32.1467 18.2301Z" fill="url(#paint3_linear_11917_53943)"/>
<path d="M56.1986 11.837C56.1986 12.8019 55.9024 13.5747 55.3186 14.151C54.6475 14.8342 53.7735 15.178 52.7024 15.178C51.6786 15.178 50.8046 14.8284 50.0875 14.1394C49.369 13.4403 49.0105 12.5823 49.0105 11.5553C49.0105 10.5283 49.369 9.67034 50.0875 8.977C50.8046 8.28222 51.6786 7.93267 52.7024 7.93267C53.212 7.93267 53.6979 8.03522 54.1616 8.22589C54.6238 8.418 55.0001 8.678 55.2727 8.99867L54.6535 9.60822C54.1779 9.06078 53.5305 8.79067 52.7024 8.79067C51.9557 8.79067 51.3083 9.04489 50.7586 9.55767C50.2149 10.0719 49.9423 10.7378 49.9423 11.5553C49.9423 12.3729 50.2149 13.0446 50.7586 13.5588C51.3083 14.0658 51.9557 14.3258 52.7024 14.3258C53.4949 14.3258 54.1616 14.0658 54.6875 13.553C55.0342 13.2136 55.2312 12.7456 55.2831 12.1476H52.7024V11.3127H56.1453C56.1868 11.4932 56.1986 11.668 56.1986 11.837V11.837Z" fill="white" stroke="white" stroke-width="0.16" stroke-miterlimit="10"/>
<path d="M61.6609 8.94263H58.4268V11.1382H61.3423V11.9731H58.4268V14.1686H61.6609V15.0194H57.5112V8.09185H61.6609V8.94263Z" fill="white" stroke="white" stroke-width="0.16" stroke-miterlimit="10"/>
<path d="M65.5155 15.0194H64.5999V8.94263H62.6162V8.09185H67.5007V8.94263H65.5155V15.0194V15.0194Z" fill="white" stroke="white" stroke-width="0.16" stroke-miterlimit="10"/>
<path d="M71.0356 15.0194V8.09185H71.9497V15.0194H71.0356Z" fill="white" stroke="white" stroke-width="0.16" stroke-miterlimit="10"/>
<path d="M76.0015 15.0194H75.0934V8.94263H73.1023V8.09185H77.9927V8.94263H76.0015V15.0194Z" fill="white" stroke="white" stroke-width="0.16" stroke-miterlimit="10"/>
<path d="M87.24 14.1279C86.5393 14.8284 85.6711 15.178 84.6356 15.178C83.5941 15.178 82.7259 14.8284 82.0252 14.1279C81.3259 13.4288 80.9778 12.5708 80.9778 11.5553C80.9778 10.5399 81.3259 9.68189 82.0252 8.98278C82.7259 8.28222 83.5941 7.93267 84.6356 7.93267C85.6652 7.93267 86.5333 8.28222 87.2341 8.98856C87.9393 9.69345 88.2874 10.5457 88.2874 11.5553C88.2874 12.5708 87.9393 13.4288 87.24 14.1279ZM82.7022 13.5472C83.2296 14.0658 83.8711 14.3258 84.6356 14.3258C85.3941 14.3258 86.0415 14.0658 86.563 13.5472C87.0889 13.0287 87.3556 12.3628 87.3556 11.5553C87.3556 10.7479 87.0889 10.082 86.563 9.56345C86.0415 9.04489 85.3941 8.78489 84.6356 8.78489C83.8711 8.78489 83.2296 9.04489 82.7022 9.56345C82.1763 10.082 81.9096 10.7479 81.9096 11.5553C81.9096 12.3628 82.1763 13.0287 82.7022 13.5472V13.5472Z" fill="white" stroke="white" stroke-width="0.16" stroke-miterlimit="10"/>
<path d="M89.5718 15.0194V8.09185H90.6829L94.1377 13.4796H94.1777L94.1377 12.1478V8.09185H95.0518V15.0194H94.0977L90.4799 9.36585H90.4399L90.4799 10.7034V15.0194H89.5718V15.0194Z" fill="white" stroke="white" stroke-width="0.16" stroke-miterlimit="10"/>
<path d="M80.7525 25.1363C77.9688 25.1363 75.6947 27.2018 75.6947 30.0517C75.6947 32.8785 77.9688 34.9657 80.7525 34.9657C83.5421 34.9657 85.8162 32.8785 85.8162 30.0517C85.8162 27.2018 83.5421 25.1363 80.7525 25.1363ZM80.7525 33.0301C79.2251 33.0301 77.911 31.8009 77.911 30.0517C77.911 28.2794 79.2251 27.0718 80.7525 27.0718C82.2799 27.0718 83.5999 28.2794 83.5999 30.0517C83.5999 31.8009 82.2799 33.0301 80.7525 33.0301V33.0301ZM69.7169 25.1363C66.9273 25.1363 64.6591 27.2018 64.6591 30.0517C64.6591 32.8785 66.9273 34.9657 69.7169 34.9657C72.5051 34.9657 74.7747 32.8785 74.7747 30.0517C74.7747 27.2018 72.5051 25.1363 69.7169 25.1363ZM69.7169 33.0301C68.188 33.0301 66.8695 31.8009 66.8695 30.0517C66.8695 28.2794 68.188 27.0718 69.7169 27.0718C71.2443 27.0718 72.5584 28.2794 72.5584 30.0517C72.5584 31.8009 71.2443 33.0301 69.7169 33.0301ZM56.5851 26.6428V28.7315H61.7006C61.551 29.8986 61.151 30.7566 60.5377 31.3546C59.791 32.0768 58.628 32.8785 56.5851 32.8785C53.4369 32.8785 50.9717 30.4013 50.9717 27.3318C50.9717 24.2624 53.4369 21.7851 56.5851 21.7851C58.2873 21.7851 59.5258 22.4337 60.4399 23.2744L61.9495 21.8025C60.671 20.6123 58.9703 19.6979 56.5851 19.6979C52.268 19.6979 48.6399 23.1227 48.6399 27.3318C48.6399 31.5409 52.268 34.9657 56.5851 34.9657C58.9184 34.9657 60.671 34.2204 62.0488 32.8221C63.4606 31.4456 63.9006 29.51 63.9006 27.9471C63.9006 27.4618 63.8591 27.0155 63.7851 26.6428H56.5851ZM110.283 28.262C109.867 27.1628 108.582 25.1363 105.966 25.1363C103.373 25.1363 101.215 27.1281 101.215 30.0517C101.215 32.8048 103.351 34.9657 106.215 34.9657C108.53 34.9657 109.867 33.5891 110.416 32.7875L108.698 31.6709C108.124 32.4885 107.344 33.0301 106.215 33.0301C105.093 33.0301 104.289 32.5289 103.773 31.5409L110.515 28.821L110.283 28.262V28.262ZM103.409 29.8986C103.351 28.0035 104.918 27.0328 106.041 27.0328C106.921 27.0328 107.668 27.4618 107.917 28.0757L103.409 29.8986V29.8986ZM97.9288 34.6667H100.145V20.2223H97.9288V34.6667ZM94.2991 26.2311H94.2251C93.7273 25.6563 92.7777 25.1363 91.5747 25.1363C89.0503 25.1363 86.7421 27.2971 86.7421 30.0676C86.7421 32.8221 89.0503 34.9657 91.5747 34.9657C92.7777 34.9657 93.7273 34.4414 94.2251 33.8491H94.2991V34.554C94.2991 36.4332 93.2695 37.4429 91.6088 37.4429C90.2547 37.4429 89.4147 36.4896 89.068 35.6879L87.1406 36.4722C87.6962 37.7751 89.1673 39.3785 91.6088 39.3785C94.2073 39.3785 96.3999 37.8878 96.3999 34.2608V25.4352H94.2991V26.2311V26.2311ZM91.7643 33.0301C90.2369 33.0301 88.9584 31.7836 88.9584 30.0676C88.9584 28.3357 90.2369 27.0718 91.7643 27.0718C93.2695 27.0718 94.4562 28.3357 94.4562 30.0676C94.4562 31.7836 93.2695 33.0301 91.7643 33.0301V33.0301ZM120.659 20.2223H115.358V34.6667H117.569V29.1937H120.659C123.114 29.1937 125.521 27.4618 125.521 24.7073C125.521 21.9541 123.108 20.2223 120.659 20.2223V20.2223ZM120.717 27.1845H117.569V22.2315H120.717C122.367 22.2315 123.309 23.5676 123.309 24.7073C123.309 25.8253 122.367 27.1845 120.717 27.1845ZM134.381 25.1088C132.784 25.1088 131.123 25.7964 130.44 27.3202L132.401 28.1219C132.824 27.3203 133.6 27.0602 134.421 27.0602C135.567 27.0602 136.73 27.7319 136.748 28.9178V29.0695C136.348 28.8441 135.492 28.5105 134.438 28.5105C132.326 28.5105 130.173 29.6444 130.173 31.7605C130.173 33.696 131.904 34.9426 133.849 34.9426C135.336 34.9426 136.157 34.2882 136.672 33.527H136.748V34.6436H138.883V29.1027C138.883 26.5417 136.921 25.1088 134.381 25.1088ZM134.114 33.0244C133.391 33.0244 132.384 32.6748 132.384 31.8009C132.384 30.6829 133.64 30.2539 134.727 30.2539C135.701 30.2539 136.157 30.4634 136.748 30.7392C136.575 32.0768 135.394 33.0244 134.114 33.0244V33.0244ZM146.661 25.4251L144.12 31.6868H144.044L141.418 25.4251H139.034L142.981 34.1756L140.729 39.0448H143.038L149.12 25.4251H146.661V25.4251ZM126.736 34.6667H128.952V20.2223H126.736V34.6667Z" fill="white"/>
<defs>
<linearGradient id="paint0_linear_11917_53943" x1="25.8365" y1="36.1574" x2="6.44974" y2="16.2735" gradientUnits="userSpaceOnUse">
<stop stop-color="#00A0FF"/>
<stop offset="0.0066" stop-color="#00A1FF"/>
<stop offset="0.2601" stop-color="#00BEFF"/>
<stop offset="0.5122" stop-color="#00D2FF"/>
<stop offset="0.7604" stop-color="#00DFFF"/>
<stop offset="1" stop-color="#00E3FF"/>
</linearGradient>
<linearGradient id="paint1_linear_11917_53943" x1="40.0999" y1="23.1093" x2="11.4221" y2="23.1093" gradientUnits="userSpaceOnUse">
<stop stop-color="#FFE000"/>
<stop offset="0.4087" stop-color="#FFBD00"/>
<stop offset="0.7754" stop-color="#FFA500"/>
<stop offset="1" stop-color="#FF9C00"/>
</linearGradient>
<linearGradient id="paint2_linear_11917_53943" x1="29.4246" y1="20.4575" x2="3.13457" y2="-6.50667" gradientUnits="userSpaceOnUse">
<stop stop-color="#FF3A44"/>
<stop offset="1" stop-color="#C31162"/>
</linearGradient>
<linearGradient id="paint3_linear_11917_53943" x1="8.64868" y1="46.0184" x2="20.3884" y2="33.9778" gradientUnits="userSpaceOnUse">
<stop stop-color="#32A071"/>
<stop offset="0.0685" stop-color="#2DA771"/>
<stop offset="0.4762" stop-color="#15CF74"/>
<stop offset="0.8009" stop-color="#06E775"/>
<stop offset="1" stop-color="#00F076"/>
</linearGradient>
</defs>
</svg>

<svg xmlns="http://www.w3.org/2000/svg" width="160" height="47" fill="none" viewBox="0 0 160 47"><path fill="#000" d="M154.074 46.222H5.926C2.668 46.222 0 43.621 0 40.444V5.778C0 2.6 2.668 0 5.926 0h148.148C157.332 0 160 2.601 160 5.778v34.666c0 3.177-2.668 5.778-5.926 5.778"/><path fill="url(#a)" d="M12.367 8.711c-.348.356-.55.909-.55 1.625v25.555c0 .717.202 1.27.55 1.625l.086.078L27.141 23.28v-.338L12.453 8.627z"/><path fill="url(#b)" d="m32.031 28.054-4.89-4.774v-.338l4.896-4.774.11.062 5.798 3.217c1.655.913 1.655 2.415 0 3.334l-5.798 3.21z"/><path fill="url(#c)" d="M32.147 27.992 27.14 23.11 12.367 37.516c.55.564 1.446.631 2.466.068z"/><path fill="url(#d)" d="M32.147 18.23 14.833 8.638c-1.02-.558-1.916-.49-2.466.073l14.774 14.4z"/><path fill="#fff" stroke="#fff" stroke-miterlimit="10" stroke-width=".16" d="M56.199 11.837c0 .965-.297 1.738-.88 2.314q-1.01 1.026-2.617 1.027c-1.023 0-1.897-.35-2.614-1.039-.719-.699-1.078-1.557-1.078-2.584q0-1.54 1.078-2.578 1.077-1.043 2.614-1.044c.51 0 .996.102 1.46.293.462.192.838.452 1.11.773l-.618.61c-.476-.548-1.123-.818-1.952-.818q-1.12-.001-1.943.767-.816.771-.817 1.997c0 .818.273 1.49.817 2.004.55.507 1.197.767 1.943.767.793 0 1.46-.26 1.986-.773q.518-.509.595-1.405h-2.58v-.835h3.442c.042.18.054.355.054.524Zm5.461-2.894h-3.233v2.195h2.915v.835h-2.915v2.196h3.234v.85h-4.15V8.092h4.15zm3.856 6.077H64.6V8.942h-1.984v-.851h4.885v.85h-1.986v6.077Zm5.52 0V8.091h.914v6.927zm4.966 0h-.909V8.942h-1.99v-.851h4.89v.85H76zm11.238-.892q-1.05 1.05-2.604 1.05-1.561 0-2.61-1.05t-1.048-2.573 1.047-2.572q1.05-1.05 2.61-1.05 1.546-.002 2.6 1.056 1.054 1.054 1.052 2.566 0 1.524-1.047 2.573Zm-4.538-.58c.528.518 1.17.778 1.934.778.758 0 1.406-.26 1.927-.779.526-.518.793-1.184.793-1.992q-.002-1.212-.793-1.992c-.522-.518-1.169-.778-1.927-.778-.765 0-1.406.26-1.934.778q-.79.78-.792 1.992.001 1.213.792 1.992Zm6.87 1.472V8.091h1.11l3.456 5.388h.04l-.04-1.332V8.092h.914v6.927h-.954L90.48 9.366h-.04l.04 1.337v4.316h-.908Z"/><path fill="#fff" d="M80.753 25.136c-2.784 0-5.058 2.066-5.058 4.916 0 2.827 2.274 4.914 5.058 4.914 2.79 0 5.063-2.087 5.063-4.914 0-2.85-2.274-4.916-5.064-4.916m0 7.894c-1.528 0-2.842-1.23-2.842-2.978 0-1.773 1.314-2.98 2.841-2.98s2.848 1.207 2.848 2.98c0 1.749-1.32 2.978-2.847 2.978m-11.036-7.894c-2.79 0-5.058 2.066-5.058 4.916 0 2.827 2.268 4.914 5.058 4.914 2.788 0 5.058-2.087 5.058-4.914 0-2.85-2.27-4.916-5.058-4.916m0 7.894c-1.529 0-2.847-1.23-2.847-2.978 0-1.773 1.318-2.98 2.847-2.98 1.527 0 2.841 1.207 2.841 2.98 0 1.749-1.314 2.978-2.841 2.978m-13.132-6.387v2.089H61.7c-.15 1.167-.55 2.025-1.163 2.623-.747.722-1.91 1.524-3.953 1.524-3.148 0-5.613-2.478-5.613-5.547 0-3.07 2.465-5.547 5.613-5.547 1.702 0 2.94.649 3.855 1.49l1.51-1.473c-1.279-1.19-2.98-2.104-5.365-2.104-4.317 0-7.945 3.425-7.945 7.634s3.628 7.634 7.945 7.634c2.333 0 4.086-.746 5.464-2.144 1.412-1.376 1.852-3.312 1.852-4.875 0-.485-.042-.931-.116-1.304zm53.698 1.619c-.416-1.1-1.701-3.126-4.317-3.126-2.593 0-4.751 1.992-4.751 4.916 0 2.753 2.136 4.914 5 4.914a5.03 5.03 0 0 0 4.201-2.178l-1.718-1.117c-.574.818-1.354 1.36-2.483 1.36-1.122 0-1.926-.502-2.442-1.49l6.742-2.72zm-6.874 1.637a2.727 2.727 0 0 1 2.632-2.866c.88 0 1.627.429 1.876 1.043zm-5.48 4.768h2.216V20.222h-2.216zm-3.63-8.436h-.074c-.498-.575-1.447-1.095-2.65-1.095-2.525 0-4.833 2.161-4.833 4.932 0 2.754 2.308 4.898 4.833 4.898 1.203 0 2.152-.525 2.65-1.117h.074v.705c0 1.88-1.03 2.889-2.69 2.889-1.354 0-2.194-.953-2.541-1.755l-1.927.784c.555 1.303 2.026 2.907 4.468 2.907 2.598 0 4.79-1.491 4.79-5.118v-8.826h-2.1zm-2.535 6.8c-1.527 0-2.806-1.247-2.806-2.963 0-1.732 1.279-2.996 2.806-2.996 1.505 0 2.692 1.264 2.692 2.996 0 1.716-1.187 2.962-2.692 2.962m28.895-12.809h-5.301v14.445h2.211v-5.473h3.09c2.455 0 4.862-1.732 4.862-4.487 0-2.753-2.413-4.485-4.862-4.485m.058 6.962h-3.148V22.23h3.148a2.54 2.54 0 0 1 2.592 2.476c0 1.118-.942 2.477-2.592 2.477m13.664-2.075c-1.597 0-3.258.687-3.941 2.211l1.961.802c.423-.802 1.199-1.062 2.02-1.062 1.146 0 2.309.672 2.327 1.858v.152c-.4-.226-1.256-.56-2.31-.56-2.112 0-4.265 1.134-4.265 3.25 0 1.936 1.731 3.183 3.676 3.183 1.487 0 2.308-.655 2.823-1.416h.076v1.117h2.135v-5.541c0-2.561-1.962-3.994-4.502-3.994m-.267 7.915c-.723 0-1.73-.35-1.73-1.223 0-1.118 1.256-1.547 2.343-1.547.974 0 1.43.21 2.021.485-.173 1.338-1.354 2.285-2.634 2.285m12.547-7.599-2.541 6.262h-.076l-2.626-6.262h-2.384l3.947 8.75-2.252 4.87h2.309l6.082-13.62zm-19.925 9.242h2.216V20.222h-2.216z"/><defs><linearGradient id="a" x1="25.837" x2="6.45" y1="36.157" y2="16.273" gradientUnits="userSpaceOnUse"><stop stop-color="#00a0ff"/><stop offset=".007" stop-color="#00a1ff"/><stop offset=".26" stop-color="#00beff"/><stop offset=".512" stop-color="#00d2ff"/><stop offset=".76" stop-color="#00dfff"/><stop offset="1" stop-color="#00e3ff"/></linearGradient><linearGradient id="b" x1="40.1" x2="11.422" y1="23.109" y2="23.109" gradientUnits="userSpaceOnUse"><stop stop-color="#ffe000"/><stop offset=".409" stop-color="#ffbd00"/><stop offset=".775" stop-color="orange"/><stop offset="1" stop-color="#ff9c00"/></linearGradient><linearGradient id="c" x1="29.425" x2="3.135" y1="20.457" y2="-6.507" gradientUnits="userSpaceOnUse"><stop stop-color="#ff3a44"/><stop offset="1" stop-color="#c31162"/></linearGradient><linearGradient id="d" x1="8.649" x2="20.388" y1="46.018" y2="33.978" gradientUnits="userSpaceOnUse"><stop stop-color="#32a071"/><stop offset=".069" stop-color="#2da771"/><stop offset=".476" stop-color="#15cf74"/><stop offset=".801" stop-color="#06e775"/><stop offset="1" stop-color="#00f076"/></linearGradient></defs></svg>
